packages/core/src/svgs/networks/mono/chiliz.svg

<svg width="24" height="24" viewBox="0 0 24 24" fill="none" xmlns="http://www.w3.org/2000/svg">
<path fill-rule="evenodd" clip-rule="evenodd" d="M5.03387 2.55664H20.24L12.5449 20.8895L11.6789 19.951L3.93457 3.25667L5.03387 2.55664ZM14.1679 11.2551C14.3338 11.351 14.3338 11.4495 14.3338 11.644H14.339C14.2547 12.0122 14.3144 12.3985 14.5062 12.7226C14.6787 12.8172 14.6787 12.917 14.5957 13.1115L12.3012 19.3002L9.58402 12.917C9.5415 12.8426 9.5192 12.7583 9.5192 12.6726C9.5192 12.587 9.5415 12.5027 9.58402 12.4283C9.69446 12.252 9.75202 12.0478 9.74995 11.8397C9.7506 11.7412 9.77367 11.6441 9.81736 11.5558C9.86053 11.4716 9.92599 11.4008 10.0066 11.351L11.8785 9.78892C11.9386 9.74044 12.0128 9.71309 12.0899 9.71114C12.167 9.71309 12.2413 9.74044 12.3012 9.78892C12.6045 10.0417 12.9325 10.2932 13.2605 10.5447C13.5703 10.7819 13.8788 11.0192 14.1679 11.2564M5.98409 4.85247L11.417 8.92945L9.30014 10.7184C9.16138 10.8001 9.00007 10.8351 8.83994 10.8182C8.36418 10.7314 8.22805 10.4202 8.08286 10.0832L8.01158 9.92374L6.07224 5.45138C6.03814 5.37355 6.00955 5.29341 5.98668 5.21156C5.96205 5.13377 5.93872 5.05599 5.88946 4.95229L5.98409 4.85247ZM12.2428 8.19963C12.1561 8.19929 12.0716 8.17262 12.0004 8.12315L6.18891 3.86076C6.11085 3.77218 6.01129 3.70522 5.89983 3.66631H18.101V3.75576C18.101 3.82187 18.0621 3.8465 18.0077 3.88021C17.9711 3.90107 17.9371 3.92632 17.9066 3.9554C16.8021 4.86025 15.66 5.71843 14.5036 6.58957C13.8334 7.09385 13.158 7.60072 12.4839 8.12315C12.413 8.1719 12.3289 8.19811 12.2428 8.19833M15.1726 10.5175L12.9675 8.92815L18.018 5.05081H18.1114C18.1058 5.10369 18.0895 5.15487 18.0634 5.20118C18.0392 5.24534 18.0239 5.29376 18.018 5.34378C17.7205 6.08934 17.4257 6.83603 17.1339 7.58387C16.7865 8.47054 16.4378 9.35983 16.0891 10.2232C16.0891 10.323 16.0009 10.5175 15.9063 10.5175C15.8117 10.5175 15.717 10.5291 15.6263 10.5408C15.4539 10.5628 15.2931 10.5823 15.1726 10.5175Z" fill="white"/>
<path d="M8.26656 13.1278C8.433 13.1257 8.5974 13.091 8.75037 13.0254C8.90334 12.9598 9.04188 12.8647 9.15806 12.7454C9.27425 12.6263 9.3658 12.4853 9.42742 12.3307C9.48912 12.1762 9.51972 12.0109 9.51751 11.8444C9.51972 11.678 9.48912 11.5128 9.42742 11.3582C9.3658 11.2035 9.27425 11.0626 9.15806 10.9435C9.04188 10.8242 8.90334 10.7292 8.75037 10.6635C8.5974 10.5979 8.433 10.5631 8.26656 10.5611C8.10023 10.5633 7.93597 10.5983 7.78315 10.6639C7.63032 10.7296 7.49193 10.8247 7.3759 10.9439C7.25985 11.0631 7.16842 11.2039 7.10682 11.3584C7.04521 11.513 7.01466 11.6781 7.01689 11.8444C7.01689 12.5535 7.57691 13.1278 8.26656 13.1278ZM15.9007 13.1278C16.067 13.1256 16.2313 13.0907 16.3841 13.025C16.537 12.9593 16.6754 12.8641 16.7914 12.745C16.9075 12.6257 16.9988 12.485 17.0604 12.3304C17.1221 12.1759 17.1526 12.0108 17.1504 11.8444C17.1526 11.6781 17.1221 11.513 17.0604 11.3584C16.9988 11.2039 16.9075 11.0631 16.7914 10.9439C16.6754 10.8247 16.537 10.7296 16.3841 10.6639C16.2313 10.5983 16.067 10.5633 15.9007 10.5611C15.7343 10.5631 15.5699 10.5979 15.4169 10.6635C15.264 10.7292 15.1254 10.8242 15.0092 10.9435C14.8931 11.0626 14.8015 11.2035 14.7398 11.3582C14.6781 11.5128 14.6475 11.678 14.6497 11.8444C14.6497 12.5535 15.2098 13.1278 15.9007 13.1278ZM4.49939 4.77807C4.86778 4.77807 5.22109 4.63172 5.48157 4.37122C5.74208 4.11073 5.88842 3.75742 5.88842 3.38903C5.88842 3.02064 5.74208 2.66733 5.48157 2.40683C5.22109 2.14634 4.86778 2 4.49939 2C4.13099 2 3.77768 2.14634 3.51718 2.40683C3.2567 2.66733 3.11035 3.02064 3.11035 3.38903C3.11035 3.75742 3.2567 4.11073 3.51718 4.37122C3.77768 4.63172 4.13099 4.77807 4.49939 4.77807ZM19.5007 4.77807C19.8691 4.77807 20.2223 4.63172 20.4829 4.37122C20.7433 4.11073 20.8897 3.75742 20.8897 3.38903C20.8897 3.02064 20.7433 2.66733 20.4829 2.40683C20.2223 2.14634 19.8691 2 19.5007 2C19.1322 2 18.779 2.14634 18.5186 2.40683C18.258 2.66733 18.1116 3.02064 18.1116 3.38903C18.1116 3.75742 18.258 4.11073 18.5186 4.37122C18.779 4.63172 19.1322 4.77807 19.5007 4.77807ZM12.2787 22C12.647 22 13.0001 21.8538 13.2604 21.5933C13.5209 21.333 13.6671 20.9799 13.6671 20.6116C13.6671 20.2435 13.5209 19.8902 13.2604 19.6299C13.0001 19.3695 12.647 19.2232 12.2787 19.2232C11.9106 19.2232 11.5574 19.3695 11.297 19.6299C11.0367 19.8902 10.8903 20.2435 10.8903 20.6116C10.8903 20.9799 11.0367 21.333 11.297 21.5933C11.5574 21.8538 11.9106 22 12.2787 22Z" fill="white"/>
</svg>

<svg xmlns="http://www.w3.org/2000/svg" width="24" height="24" fill="none" viewBox="0 0 24 24">
    <path fill="#fff" fill-rule="evenodd" d="M5.034 2.557H20.24L12.545 20.89l-.866-.939L3.935 3.257zm9.134 8.698c.166.096.166.194.166.389h.005c-.084.368-.025.755.167 1.079.173.094.173.194.09.388l-2.295 6.19-2.717-6.384a.49.49 0 0 1 0-.489c.11-.176.168-.38.166-.588a.65.65 0 0 1 .067-.284.5.5 0 0 1 .19-.205l1.872-1.562a.35.35 0 0 1 .21-.078.35.35 0 0 1 .212.078c.303.253.631.504.96.756.31.237.618.474.907.711M5.984 4.852l5.433 4.077L9.3 10.72a.75.75 0 0 1-.46.1c-.476-.088-.612-.399-.757-.736l-.071-.16-1.94-4.472a2 2 0 0 1-.085-.24c-.025-.077-.048-.155-.098-.259zM12.243 8.2A.43.43 0 0 1 12 8.123L6.19 3.861a.7.7 0 0 0-.29-.195h12.202v.09c0 .066-.039.09-.093.124a.5.5 0 0 0-.101.075c-1.105.905-2.247 1.763-3.403 2.635-.67.504-1.346 1.01-2.02 1.533a.43.43 0 0 1-.241.075m2.93 2.32-2.206-1.59 5.051-3.877h.093a.4.4 0 0 1-.048.15.4.4 0 0 0-.045.143q-.446 1.118-.884 2.24c-.348.887-.696 1.776-1.045 2.64 0 .099-.088.293-.183.293-.094 0-.189.012-.28.024-.172.022-.333.041-.453-.024" clip-rule="evenodd"/>
    <path fill="#fff" d="M8.267 13.128a1.27 1.27 0 0 0 1.25-1.284 1.266 1.266 0 0 0-1.25-1.283 1.27 1.27 0 0 0-1.25 1.283c0 .71.56 1.284 1.25 1.284m7.634 0a1.266 1.266 0 0 0 1.25-1.284 1.266 1.266 0 0 0-1.25-1.283 1.266 1.266 0 0 0-1.251 1.283c0 .71.56 1.284 1.25 1.284M4.499 4.778A1.389 1.389 0 1 0 4.5 2a1.389 1.389 0 0 0 0 2.778m15.002 0A1.39 1.39 0 1 0 19.5 2a1.39 1.39 0 0 0 0 2.778M12.279 22a1.388 1.388 0 1 0 0-2.775 1.388 1.388 0 0 0 0 2.775"/>
</svg>
